public/assets/GurucoolSmallLogo.svg

<svg width="82" height="82" viewBox="0 0 82 82" fill="none" xmlns="http://www.w3.org/2000/svg">
<mask id="mask0_1562_17297" style="mask-type:luminance" maskUnits="userSpaceOnUse" x="0" y="0" width="82" height="82">
<path d="M82 0H0V82H82V0Z" fill="white"/>
</mask>
<g mask="url(#mask0_1562_17297)">
<path d="M57.6101 45.75C54.2601 45.75 60.3001 44.86 56.9501 44.86C56.6901 44.86 57.2001 44.66 56.9501 44.6C56.3101 44.43 56.6001 44.49 56.9501 43.91C57.0701 43.71 55.0201 43.49 55.1801 43.33C56.8901 41.57 55.0301 50.4 51.4801 49.05C50.4201 47.19 53.4301 38.91 55.6401 38.91C62.1701 38.91 68.1401 36.26 74.6701 36.27C75.0101 36.27 75.3501 36.32 75.6801 36.35C76.7201 36.46 77.5701 37.14 77.7301 38.22C77.9001 39.39 77.9701 40.59 77.9601 41.78C77.9101 45.44 77.2601 49 76.1801 52.48C74.6901 57.27 72.4201 61.62 69.2201 65.39C65.0501 70.32 60.0201 74.01 54.0601 76.28C51.4901 77.26 48.8601 77.99 46.1701 78.4C43.6101 78.79 41.0201 78.86 38.4201 78.66C35.0201 78.39 31.7601 77.58 28.5101 76.57C26.3201 75.89 12.5001 68.54 6.1601 53.47C4.5501 48.79 3.8201 43.97 4.1101 39.01C4.4301 33.55 5.7901 28.39 8.2801 23.56C11.7301 16.89 16.6701 11.76 23.0001 8.09001C26.9701 5.79001 31.2301 4.27001 35.7501 3.69001C37.4601 3.47001 39.1901 3.24001 40.9101 3.26001C46.3201 3.33001 51.5401 4.40001 56.4801 6.78001C60.6801 8.80001 64.3701 11.56 67.6301 14.94C68.8901 16.25 68.9201 17.99 67.6901 19.34C66.8901 20.22 66.0601 21.07 65.2101 21.9C64.0901 23 62.9101 23.07 61.7101 22.06C60.7901 21.28 60.0001 20.35 59.0901 19.56C55.2101 16.17 50.7701 13.9 45.7801 13.08C39.4501 12.05 33.3301 12.88 27.6501 16.14C23.6501 18.44 20.3501 21.54 17.7901 25.51C15.5501 28.98 14.1201 32.76 13.5401 36.88C12.9401 41.18 13.3101 45.42 14.5901 49.56C14.9901 50.84 15.4901 52.09 16.0001 53.32C16.8601 55.4 24.6401 65.11 29.1401 66.62C31.7101 67.83 34.3701 68.68 37.1601 69.06C39.4401 69.37 41.7301 69.43 44.0201 69.17C48.7501 68.63 53.0501 66.93 56.9601 64.12C62.1701 60.37 65.7601 55.37 67.5801 49.05C68.1301 47.15 67.2601 45.9 65.3501 45.76C64.5801 45.7 63.8101 45.78 63.0401 45.78C60.3501 45.78 61.1101 45.78 58.4201 45.78C61.8801 45.78 57.6101 44.66 57.6101 45.76V45.75Z" fill="#660099"/>
<path d="M41.3801 69.3401C41.3801 68.4701 41.6801 68.8201 41.6801 68.0601C41.6601 66.7101 40.8201 66.1801 39.7001 66.8001C39.1901 67.0801 38.6601 67.3701 38.1101 67.5801C37.7401 67.7201 37.3701 67.0001 37.6501 66.7101C38.7501 65.6301 39.9001 64.6201 40.9801 63.5501C41.2401 63.2701 41.3801 62.8601 41.5801 62.5201C41.4501 62.4101 41.3201 62.3101 41.1801 62.2001C40.6901 62.6401 40.2501 63.1201 39.7201 63.4601C39.7101 63.4601 39.6901 63.4801 39.6801 63.4901C39.2501 63.7201 38.6101 63.0401 38.9501 62.6801C40.1601 61.4901 41.1801 59.9501 43.5201 60.1301C43.2601 59.5101 43.0801 59.1201 42.9001 58.7101C42.8301 58.5701 42.7801 58.3301 42.7101 58.2001C42.0501 56.8001 41.2901 55.5501 40.6301 54.1301C40.5901 54.0401 40.5901 53.8801 40.5201 53.8101C39.8101 53.0301 39.7301 51.6101 39.7901 51.0601C39.9001 50.8301 40.1601 50.7701 40.2801 50.5101C40.3801 50.2801 40.3301 49.8401 40.4301 49.6701C40.6301 49.3401 40.9901 49.4701 41.2901 49.2501C41.4001 49.1701 41.3601 48.8401 41.4801 48.7801C42.2701 48.3901 42.2701 47.8401 42.1601 47.1301C42.0801 46.5901 42.0701 46.0401 42.0401 45.4801C42.0401 45.4101 42.0701 45.3401 42.1301 45.3101C42.2301 45.2601 42.3401 45.2801 42.4201 45.3601C42.6001 45.5601 42.7901 45.7601 42.9101 45.9801C43.9501 47.9801 44.3001 50.1501 44.3901 52.3801C44.3901 52.4901 44.3901 52.6101 44.4101 52.7201C44.5201 53.8001 44.1501 55.1301 45.6501 55.4901C47.7001 55.9901 48.9801 55.4201 49.6901 53.5201C50.1101 52.4001 50.3701 51.1801 50.5101 49.9901C50.9501 46.3201 52.1401 43.1101 55.1201 40.8401C55.2101 40.7701 55.2501 40.6601 55.3601 40.5001C54.9201 39.9701 54.5001 39.3801 53.9901 38.8901C53.7501 38.6801 53.2801 38.5501 53.0001 38.6401C52.1801 38.8501 51.6301 38.8201 51.0401 37.9801C50.4001 37.0901 49.4301 36.4701 48.4601 35.8901C48.4101 35.8201 48.3501 35.7501 48.3701 35.6801C48.5701 33.8901 48.0401 32.3801 47.1101 30.8601C46.2301 29.3901 46.4701 27.8801 47.4901 26.3901C48.5701 24.8101 50.5701 24.3001 51.3801 23.4601C51.6901 23.2301 52.0801 22.8101 53.2001 22.7201C54.4401 22.6101 54.2701 21.5801 55.4301 21.5801C55.6701 21.9901 56.3701 21.7801 56.7101 22.1301C57.2201 22.6601 57.9201 23.0901 58.2301 23.7401C59.4401 26.2901 59.6901 28.9201 58.3201 31.5401C57.6401 32.8501 57.7501 33.8801 58.9201 35.0501C60.1101 36.2401 61.3701 37.3701 62.6501 38.4401C65.4701 40.8501 67.3401 43.8501 67.8301 47.7101C67.7001 49.6101 67.2001 50.3901 66.0801 53.2201C64.9601 56.0501 62.0101 59.8601 61.0101 60.7101C56.1601 65.6901 49.9501 68.6201 44.3801 69.1701C43.9801 69.2201 41.9701 69.3701 41.4001 69.3701L41.3801 69.3401Z" fill="#F7F7F7"/>
<path d="M30.0902 63.8699H33.7502C35.3702 63.8899 36.0802 64.5899 36.3802 66.4099C36.1802 66.9399 35.7402 68.8699 35.4202 68.7899C31.7502 67.8599 26.8502 67.2399 20.2702 59.1699C19.8002 58.5999 19.0302 58.1099 19.0802 57.3699C19.1802 55.6299 19.1602 53.8699 19.2002 52.1299C19.2802 49.7599 20.0102 47.6899 21.9302 46.2199C22.6402 45.6799 22.6202 43.9399 21.9302 43.3699C20.4602 42.1799 19.8702 40.5799 19.9102 38.6799C19.9502 36.7899 20.6802 35.8899 22.4502 35.4299C24.2102 34.9899 26.1002 34.8099 27.4402 35.8799C27.5802 35.9999 28.2602 36.6099 28.3602 37.0699C28.5002 37.6599 28.4702 38.2699 28.4702 38.8999C28.4502 39.8799 28.5302 40.8499 29.2802 41.5999C29.3502 41.6699 29.4202 41.7799 29.4802 41.8999C29.5602 42.0499 29.4802 42.2299 29.3202 42.2899C29.0402 42.3799 28.7602 42.4799 28.4602 42.5899C28.4402 43.0699 28.4202 43.5699 28.3902 44.0799C28.3702 44.3599 28.1702 44.5999 27.9002 44.6399C27.8202 44.6499 27.7302 44.6599 27.6502 44.6599C25.9102 44.6999 25.1902 45.8099 25.8502 47.5099C26.7402 49.6899 27.5902 51.9099 28.6402 53.9999C29.6502 56.0099 30.0902 58.1099 30.0702 60.3499C30.1102 61.4999 30.1102 62.6299 30.1102 63.8499L30.0902 63.8699Z" fill="#F6F6F6"/>
<path d="M55.8302 46.6498C55.3202 45.5698 54.7602 42.5498 54.8202 41.0098C52.7402 42.5398 51.7802 44.8598 51.3202 46.1298C51.1902 47.8498 51.1302 52.3998 51.6802 55.5198C52.3402 59.2598 55.1202 62.7998 56.4402 64.6398C56.6902 64.4798 56.5902 64.4798 57.2002 64.0598C57.9602 63.5298 61.2502 60.8398 63.0302 58.3598C64.2002 56.7298 65.3402 54.8998 65.6702 54.0898C65.3502 54.0898 64.3702 53.9798 63.4402 53.9798C62.2802 53.9798 58.7802 52.8698 55.8402 46.6498H55.8302Z" fill="#660099"/>
<path fill-rule="evenodd" clip-rule="evenodd" d="M53.9401 45.0497C53.7801 44.2397 53.9101 43.1597 53.9401 42.6997L54.2701 41.4297C54.2401 41.8497 54.4601 44.2297 54.6301 45.0397C54.7901 45.8497 54.9001 46.7097 55.1701 47.6297C55.4401 48.5397 55.7401 49.4397 56.0201 50.1897C56.3101 50.9397 56.7001 51.4597 56.9101 51.7597C57.9501 53.2597 63.7001 57.2897 67.5001 59.3397C63.7001 57.2797 57.4901 53.4797 56.4001 51.9197C56.1701 51.5897 55.7701 51.0597 55.4801 50.3097C55.1901 49.5497 54.8001 48.6797 54.5201 47.7597C54.2501 46.8397 54.1001 45.8697 53.9401 45.0497Z" fill="#F7F7F7"/>
<path fill-rule="evenodd" clip-rule="evenodd" d="M53.06 48.0496C52.9 47.2296 52.97 46.8496 53 46.3896L53.1 45.8096C53.07 46.2296 53.34 47.0796 53.5 47.8896C53.66 48.6996 53.91 49.5596 54.18 50.4696C54.45 51.3796 54.75 52.2796 55.03 53.0296C55.32 53.7796 55.63 54.3596 55.84 54.6496C56.19 55.0596 61.62 61.2896 62.43 61.7196C60.61 60.5096 55.78 55.3596 55.54 55.0896C55.31 54.7596 54.89 54.0696 54.6 53.3196C54.31 52.5596 54.01 51.6596 53.74 50.7296C53.47 49.8096 53.23 48.8696 53.07 48.0496H53.06Z" fill="#F7F7F7"/>
<path fill-rule="evenodd" clip-rule="evenodd" d="M55.66 59.4303C55.53 59.1203 55.54 58.9703 55.52 58.7803L55.54 58.3203C55.55 58.4903 55.7 59.1203 55.83 59.4203C55.96 59.7203 56.15 59.9703 56.34 60.3003C56.53 60.6403 56.79 60.9403 56.97 61.2103C57.16 61.4803 57.32 61.6103 57.44 61.7103C57.63 61.8403 58.62 62.7003 59.03 62.7903C58.08 62.4703 57.43 62.0603 57.29 61.9703C57.16 61.8603 56.91 61.6303 56.73 61.3603C56.54 61.0903 56.34 60.7603 56.15 60.4203C55.96 60.0803 55.79 59.7303 55.65 59.4303H55.66Z" fill="#F7F7F7"/>
<path d="M46.58 26.1895C46.58 26.1895 46.52 26.2195 46.51 26.2295C46.52 26.2195 46.55 26.1995 46.58 26.1895C47.21 25.7995 51.13 23.1495 52.34 22.7495C53.61 22.3295 54.78 21.2195 55.63 21.5395C56.34 21.7995 56.83 22.0095 56.9 22.0095C56.09 23.2795 54.57 24.9595 52.29 25.5395C50.36 26.0295 48.17 26.1795 47.42 26.1195C46.95 26.0795 46.7 26.1295 46.58 26.1795V26.1895Z" fill="#660099"/>
<path fill-rule="evenodd" clip-rule="evenodd" d="M53.9402 21.7802C55.5502 21.5202 56.7402 21.6002 57.6102 21.9202C58.4902 22.2502 59.0302 22.8202 59.3602 23.5302C59.6802 24.2202 59.8402 24.7102 59.8502 25.1202C59.8502 25.5402 59.6902 25.8702 59.3802 26.2802C59.0602 26.7002 58.5002 26.9202 57.9302 27.0502C57.5402 27.1402 57.1402 27.2002 56.8002 27.2402C56.6402 27.2602 56.4902 27.2802 56.3702 27.3002C55.7202 27.4102 54.1102 27.7402 53.3802 27.9002C52.5702 28.2502 50.6902 29.0602 49.5902 29.5202C48.9002 29.8102 48.4302 29.8802 48.0402 29.8502C47.8502 29.8402 47.6802 29.8002 47.5202 29.7502C47.4602 29.7302 47.4002 29.7202 47.3402 29.7002C47.2402 29.6702 47.1502 29.6402 47.0502 29.6202C46.6902 29.5302 46.3502 29.1802 46.1002 28.7302C45.8502 28.2702 45.6802 27.7002 45.6602 27.1202C45.6302 25.9602 46.4702 24.7502 47.7002 23.9702C48.9202 23.2002 50.8502 22.1702 53.9402 21.7902V21.7802ZM57.4202 26.9902C54.5102 27.5802 54.6702 27.6302 53.5602 27.7002C52.3602 28.4602 52.0802 28.2902 51.0702 28.7202C50.5402 29.1102 49.6902 29.3102 49.0002 29.5802C48.1502 30.0502 46.8002 29.3802 47.1002 29.4602C47.2102 29.4902 47.3102 29.5202 47.4102 29.5502C47.4702 29.5702 47.5202 29.5802 47.5802 29.6002C47.7302 29.6402 47.8902 29.6802 48.0702 29.6902C48.4202 29.7202 48.8602 29.6602 49.5402 29.3702C50.6302 28.9102 52.5202 28.1002 53.3302 27.7502C54.0602 27.5902 55.6802 27.2502 56.3402 27.1402C56.4802 27.1202 56.6302 27.1002 56.7902 27.0702C57.1302 27.0202 57.5202 26.9702 57.8902 26.8802C58.4502 26.7502 58.9602 26.5402 59.2402 26.1702C59.5402 25.7802 59.6802 25.4802 59.6802 25.1102C59.6802 24.7302 59.5302 24.2802 59.2102 23.5802C58.9002 22.9002 58.3902 22.3202 57.5402 22.0502C58.1202 22.0502 60.7802 24.3002 59.2702 26.2302L58.5802 26.7702L57.4202 26.9802V26.9902Z" fill="#660099"/>
<path fill-rule="evenodd" clip-rule="evenodd" d="M53.9402 21.7802C55.5502 21.5202 56.7402 21.6002 57.6102 21.9202C58.4902 22.2502 59.0302 22.8202 59.3602 23.5302C59.6802 24.2202 59.8402 24.7102 59.8502 25.1202C59.8502 25.5402 59.5602 27.4202 59.2502 27.8202C58.9302 28.2402 58.5002 26.9102 57.9302 27.0502C57.5402 27.1402 57.1402 27.2002 56.8002 27.2402C56.6402 27.2602 56.4902 27.2802 56.3702 27.3002C55.7202 27.4102 54.1102 27.7402 53.3802 27.9002C52.5702 28.2502 50.6902 29.0602 49.5902 29.5202C48.9002 29.8102 48.4302 29.8802 48.0402 29.8502C47.8502 29.8302 47.6802 29.8002 47.5202 29.7502C47.4602 29.7302 47.4002 29.7202 47.3402 29.7002C47.2402 29.6702 47.1502 29.6402 47.0502 29.6202C46.6902 29.5302 46.3502 29.1802 46.1002 28.7302C45.8502 28.2702 45.6802 27.7002 45.6602 27.1202C45.6302 25.9602 46.4702 24.7502 47.7002 23.9702C48.9202 23.2002 50.8502 22.1702 53.9402 21.7902V21.7802ZM53.9502 21.9302C50.8902 22.3202 48.9902 23.3302 47.7802 24.0902C46.5802 24.8502 45.7902 26.0102 45.8202 27.1002C45.8302 27.6502 46.0002 28.2102 46.2402 28.6402C46.4802 29.0802 46.8002 29.3902 47.1002 29.4602C47.2102 29.4902 47.3102 29.5202 47.4102 29.5502C47.4702 29.5702 47.5202 29.5802 47.5802 29.6002C47.7302 29.6402 47.8902 29.6802 48.0702 29.6902C48.4202 29.7202 48.8602 29.6602 49.5402 29.3702C50.6302 28.9102 52.5202 28.1002 53.3302 27.7502C54.0602 27.5902 55.6802 27.2502 56.3402 27.1402C56.4802 27.1202 56.6302 27.1002 56.7902 27.0802C57.1302 27.0302 57.5202 26.9802 57.8902 26.8902C58.4502 26.7602 58.9602 26.5502 59.2402 26.1802C59.5402 25.7902 59.6802 25.4902 59.6802 25.1202C59.6802 24.7402 59.5302 24.2902 59.2102 23.5902C58.9002 22.9102 58.3802 22.3702 57.5402 22.0602C56.7002 21.7502 55.5402 21.6702 53.9502 21.9202V21.9302Z" fill="#F7F7F7"/>
<path fill-rule="evenodd" clip-rule="evenodd" d="M47.4601 24.6899C47.5101 24.3499 47.6701 24.0499 47.8401 23.8799L47.9501 23.9799C47.8101 24.1199 47.8201 24.3099 47.7801 24.6199C47.7401 24.9199 47.8701 25.1999 48.1501 25.4599C48.5201 25.7999 48.9901 26.2299 49.7201 26.5099C50.4501 26.7899 51.1901 27.0399 51.7701 27.0699C52.3201 27.1099 52.8601 27.1699 53.4201 27.1899C53.5301 27.1899 53.6701 27.2199 53.7801 27.2199C54.4301 27.2499 55.0701 27.3599 55.4901 27.4099C55.0701 27.3599 54.4401 27.3399 53.7901 27.3099C53.6801 27.3099 53.5701 27.3099 53.4601 27.2999C52.9001 27.2799 52.3101 27.2599 51.7501 27.2199C51.1501 27.1799 50.3601 26.9799 49.6301 26.6999C48.9001 26.4199 48.2101 26.0599 47.8201 25.6999C47.5001 25.3999 47.4301 25.0199 47.4701 24.6799L47.4601 24.6899Z" fill="#F7F7F7"/>
<path fill-rule="evenodd" clip-rule="evenodd" d="M52.23 26.3203C53.3 26.3203 54.57 26.0003 55.57 26.0303C56.4 26.0503 57.32 25.6003 58.06 25.3403C58.82 24.8903 59.15 24.2903 59.49 24.0703L59.8 25.2003C59.45 25.4203 58.82 25.7503 58.07 26.0203C57.32 26.2903 56.44 26.5003 55.58 26.4803C54.58 26.4603 53.3 26.4603 52.23 26.4703C52.18 26.4703 52.12 26.4703 52.07 26.4703C51.52 26.4703 51.07 26.3903 50.72 26.3903C50.54 26.3903 50.44 26.3403 50.34 26.3403C50.29 26.3403 50.27 26.3403 50.24 26.3403C50.23 26.3403 50.14 26.3003 50.13 26.3003C50.13 26.3003 50.05 26.3003 50.04 26.3003C50.04 26.3003 50.18 26.3003 50.17 26.3003C50.17 26.3003 50.17 26.3003 50.19 26.3003C50.21 26.3003 50.25 26.3003 50.3 26.3003C50.4 26.3003 50.54 26.3003 50.71 26.3003C51.06 26.3003 51.55 26.3003 52.1 26.3003C52.15 26.3003 52.21 26.3003 52.26 26.3003L52.23 26.3203Z" fill="#F7F7F7"/>
<path fill-rule="evenodd" clip-rule="evenodd" d="M46.11 27.9698C45.97 27.6998 45.74 27.1498 45.76 26.9698L45.81 26.5498C45.79 26.6998 46.4 27.3198 46.52 27.5498C46.64 27.7698 46.85 27.9298 47.23 28.0198C48.03 28.2298 51.02 28.2498 51.44 28.2298L50.07 28.5398C49.64 28.5598 47.83 28.7498 47.01 28.5398C46.58 28.4298 46.26 28.2398 46.12 27.9598L46.11 27.9698Z" fill="#F7F7F7"/>
<path d="M58.2102 46.4302C58.2102 41.2102 64.2102 42.9302 64.3402 41.9502C69.8102 46.1202 66.5502 51.4702 66.2202 52.3402C65.7102 53.6602 59.7602 59.4602 58.4402 60.9402C57.3902 62.1202 57.9102 62.2602 56.3402 63.0002L45.2402 65.0602C44.8002 63.8302 43.9102 59.6902 44.9602 60.1602C46.2802 60.7402 52.8402 59.1602 53.4502 58.7402C54.0602 58.3202 58.2102 50.2502 58.6702 50.0902C59.1302 49.9302 58.2102 47.3502 58.2102 46.4502V46.4302Z" fill="#F6F6F6"/>
</g>
</svg>

<svg xmlns="http://www.w3.org/2000/svg" width="82" height="82" fill="none"><mask id="a" width="82" height="82" x="0" y="0" maskUnits="userSpaceOnUse" style="mask-type:luminance"><path fill="#fff" d="M82 0H0v82h82V0Z"/></mask><g mask="url(#a)"><path fill="#609" d="M57.61 45.75c-3.35 0 2.69-.89-.66-.89-.26 0 .25-.2 0-.26-.64-.17-.35-.11 0-.69.12-.2-1.93-.42-1.77-.58 1.71-1.76-.15 7.07-3.7 5.72-1.06-1.86 1.95-10.14 4.16-10.14 6.53 0 12.5-2.65 19.03-2.64.34 0 .68.05 1.01.08 1.04.11 1.89.79 2.05 1.87.17 1.17.24 2.37.23 3.56-.05 3.66-.7 7.22-1.78 10.7-1.49 4.79-3.76 9.14-6.96 12.91-4.17 4.93-9.2 8.62-15.16 10.89-2.57.98-5.2 1.71-7.89 2.12-2.56.39-5.15.46-7.75.26-3.4-.27-6.66-1.08-9.91-2.09-2.19-.68-16.01-8.03-22.35-23.1-1.61-4.68-2.34-9.5-2.05-14.46.32-5.46 1.68-10.62 4.17-15.45 3.45-6.67 8.39-11.8 14.72-15.47 3.97-2.3 8.23-3.82 12.75-4.4 1.71-.22 3.44-.45 5.16-.43 5.41.07 10.63 1.14 15.57 3.52 4.2 2.02 7.89 4.78 11.15 8.16 1.26 1.31 1.29 3.05.06 4.4-.8.88-1.63 1.73-2.48 2.56-1.12 1.1-2.3 1.17-3.5.16-.92-.78-1.71-1.71-2.62-2.5-3.88-3.39-8.32-5.66-13.31-6.48-6.33-1.03-12.45-.2-18.13 3.06-4 2.3-7.3 5.4-9.86 9.37-2.24 3.47-3.67 7.25-4.25 11.37-.6 4.3-.23 8.54 1.05 12.68.4 1.28.9 2.53 1.41 3.76.86 2.08 8.64 11.79 13.14 13.3 2.57 1.21 5.23 2.06 8.02 2.44 2.28.31 4.57.37 6.86.11 4.73-.54 9.03-2.24 12.94-5.05 5.21-3.75 8.8-8.75 10.62-15.07.55-1.9-.32-3.15-2.23-3.29-.77-.06-1.54.02-2.31.02h-4.62c3.46 0-.81-1.12-.81-.02v-.01Z"/><path fill="#F7F7F7" d="M41.38 69.34c0-.87.3-.52.3-1.28-.02-1.35-.86-1.88-1.98-1.26-.51.28-1.04.57-1.59.78-.37.14-.74-.58-.46-.87 1.1-1.08 2.25-2.09 3.33-3.16.26-.28.4-.69.6-1.03-.13-.11-.26-.21-.4-.32-.49.44-.93.92-1.46 1.26-.01 0-.03.02-.04.03-.43.23-1.07-.45-.73-.81 1.21-1.19 2.23-2.73 4.57-2.55-.26-.62-.44-1.01-.62-1.42-.07-.14-.12-.38-.19-.51-.66-1.4-1.42-2.65-2.08-4.07-.04-.09-.04-.25-.11-.32-.71-.78-.79-2.2-.73-2.75.11-.23.37-.29.49-.55.1-.23.05-.67.15-.84.2-.33.56-.2.86-.42.11-.08.07-.41.19-.47.79-.39.79-.94.68-1.65-.08-.54-.09-1.09-.12-1.65 0-.07.03-.14.09-.17.1-.05.21-.03.29.05.18.2.37.4.49.62 1.04 2 1.39 4.17 1.48 6.4 0 .11 0 .23.02.34.11 1.08-.26 2.41 1.24 2.77 2.05.5 3.33-.07 4.04-1.97.42-1.12.68-2.34.82-3.53.44-3.67 1.63-6.88 4.61-9.15.09-.07.13-.18.24-.34-.44-.53-.86-1.12-1.37-1.61-.24-.21-.71-.34-.99-.25-.82.21-1.37.18-1.96-.66-.64-.89-1.61-1.51-2.58-2.09-.05-.07-.11-.14-.09-.21.2-1.79-.33-3.3-1.26-4.82-.88-1.47-.64-2.98.38-4.47 1.08-1.58 3.08-2.09 3.89-2.93.31-.23.7-.65 1.82-.74 1.24-.11 1.07-1.14 2.23-1.14.24.41.94.2 1.28.55.51.53 1.21.96 1.52 1.61 1.21 2.55 1.46 5.18.09 7.8-.68 1.31-.57 2.34.6 3.51 1.19 1.19 2.45 2.32 3.73 3.39 2.82 2.41 4.69 5.41 5.18 9.27-.13 1.9-.63 2.68-1.75 5.51-1.12 2.83-4.07 6.64-5.07 7.49-4.85 4.98-11.06 7.91-16.63 8.46-.4.05-2.41.2-2.98.2l-.02-.03Z"/><path fill="#F6F6F6" d="M30.09 63.87h3.66c1.62.02 2.33.72 2.63 2.54-.2.53-.64 2.46-.96 2.38-3.67-.93-8.57-1.55-15.15-9.62-.47-.57-1.24-1.06-1.19-1.8.1-1.74.08-3.5.12-5.24.08-2.37.81-4.44 2.73-5.91.71-.54.69-2.28 0-2.85-1.47-1.19-2.06-2.79-2.02-4.69.04-1.89.77-2.79 2.54-3.25 1.76-.44 3.65-.62 4.99.45.14.12.82.73.92 1.19.14.59.11 1.2.11 1.83-.02.98.06 1.95.81 2.7.07.07.14.18.2.3.08.15 0 .33-.16.39-.28.09-.56.19-.86.3-.02.48-.04.98-.07 1.49-.02.28-.22.52-.49.56-.08.01-.17.02-.25.02-1.74.04-2.46 1.15-1.8 2.85.89 2.18 1.74 4.4 2.79 6.49 1.01 2.01 1.45 4.11 1.43 6.35.04 1.15.04 2.28.04 3.5l-.02.02Z"/><path fill="#609" d="M55.83 46.65c-.51-1.08-1.07-4.1-1.01-5.64-2.08 1.53-3.04 3.85-3.5 5.12-.13 1.72-.19 6.27.36 9.39.66 3.74 3.44 7.28 4.76 9.12.25-.16.15-.16.76-.58.76-.53 4.05-3.22 5.83-5.7 1.17-1.63 2.31-3.46 2.64-4.27-.32 0-1.3-.11-2.23-.11-1.16 0-4.66-1.11-7.6-7.33h-.01Z"/><path fill="#F7F7F7" fill-rule="evenodd" d="M53.94 45.05c-.16-.81-.03-1.89 0-2.35l.33-1.27c-.03.42.19 2.8.36 3.61.16.81.27 1.67.54 2.59.27.91.57 1.81.85 2.56.29.75.68 1.27.89 1.57 1.04 1.5 6.79 5.53 10.59 7.58-3.8-2.06-10.01-5.86-11.1-7.42-.23-.33-.63-.86-.92-1.61-.29-.76-.68-1.63-.96-2.55-.27-.92-.42-1.89-.58-2.71Z" clip-rule="evenodd"/><path fill="#F7F7F7" fill-rule="evenodd" d="M53.06 48.05c-.16-.82-.09-1.2-.06-1.66l.1-.58c-.03.42.24 1.27.4 2.08.16.81.41 1.67.68 2.58.27.91.57 1.81.85 2.56.29.75.6 1.33.81 1.62.35.41 5.78 6.64 6.59 7.07-1.82-1.21-6.65-6.36-6.89-6.63-.23-.33-.65-1.02-.94-1.77-.29-.76-.59-1.66-.86-2.59-.27-.92-.51-1.86-.67-2.68h-.01ZM55.66 59.43c-.13-.31-.12-.46-.14-.65l.02-.46c.01.17.16.8.29 1.1.13.3.32.55.51.88.19.34.45.64.63.91.19.27.35.4.47.5.19.13 1.18.99 1.59 1.08-.95-.32-1.6-.73-1.74-.82-.13-.11-.38-.34-.56-.61-.19-.27-.39-.6-.58-.94-.19-.34-.36-.69-.5-.99h.01Z" clip-rule="evenodd"/><path fill="#609" d="M46.58 26.19s-.06.03-.07.04c.01-.01.04-.03.07-.04.63-.39 4.55-3.04 5.76-3.44 1.27-.42 2.44-1.53 3.29-1.21.71.26 1.2.47 1.27.47-.81 1.27-2.33 2.95-4.61 3.53-1.93.49-4.12.64-4.87.58-.47-.04-.72.01-.84.06v.01Z"/><path fill="#609" fill-rule="evenodd" d="M53.94 21.78c1.61-.26 2.8-.18 3.67.14.88.33 1.42.9 1.75 1.61.32.69.48 1.18.49 1.59 0 .42-.16.75-.47 1.16-.32.42-.88.64-1.45.77-.39.09-.79.15-1.13.19-.16.02-.31.04-.43.06-.65.11-2.26.44-2.99.6-.81.35-2.69 1.16-3.79 1.62-.69.29-1.16.36-1.55.33-.19-.01-.36-.05-.52-.1-.06-.02-.12-.03-.18-.05-.1-.03-.19-.06-.29-.08-.36-.09-.7-.44-.95-.89-.25-.46-.42-1.03-.44-1.61-.03-1.16.81-2.37 2.04-3.15 1.22-.77 3.15-1.8 6.24-2.18v-.01Zm3.48 5.21c-2.91.59-2.75.64-3.86.71-1.2.76-1.48.59-2.49 1.02-.53.39-1.38.59-2.07.86-.85.47-2.2-.2-1.9-.12.11.03.21.06.31.09.06.02.11.03.17.05.15.04.31.08.49.09.35.03.79-.03 1.47-.32 1.09-.46 2.98-1.27 3.79-1.62.73-.16 2.35-.5 3.01-.61.14-.02.29-.04.45-.07.34-.05.73-.1 1.1-.19.56-.13 1.07-.34 1.35-.71.3-.39.44-.69.44-1.06 0-.38-.15-.83-.47-1.53-.31-.68-.82-1.26-1.67-1.53.58 0 3.24 2.25 1.73 4.18l-.69.54-1.16.21v.01Z" clip-rule="evenodd"/><path fill="#F7F7F7" fill-rule="evenodd" d="M53.94 21.78c1.61-.26 2.8-.18 3.67.14.88.33 1.42.9 1.75 1.61.32.69.48 1.18.49 1.59 0 .42-.29 2.3-.6 2.7-.32.42-.75-.91-1.32-.77-.39.09-.79.15-1.13.19-.16.02-.31.04-.43.06-.65.11-2.26.44-2.99.6-.81.35-2.69 1.16-3.79 1.62-.69.29-1.16.36-1.55.33-.19-.02-.36-.05-.52-.1-.06-.02-.12-.03-.18-.05-.1-.03-.19-.06-.29-.08-.36-.09-.7-.44-.95-.89-.25-.46-.42-1.03-.44-1.61-.03-1.16.81-2.37 2.04-3.15 1.22-.77 3.15-1.8 6.24-2.18v-.01Zm.01.15c-3.06.39-4.96 1.4-6.17 2.16-1.2.76-1.99 1.92-1.96 3.01.01.55.18 1.11.42 1.54.24.44.56.75.86.82.11.03.21.06.31.09.06.02.11.03.17.05.15.04.31.08.49.09.35.03.79-.03 1.47-.32 1.09-.46 2.98-1.27 3.79-1.62.73-.16 2.35-.5 3.01-.61.14-.02.29-.04.45-.06.34-.05.73-.1 1.1-.19.56-.13 1.07-.34 1.35-.71.3-.39.44-.69.44-1.06 0-.38-.15-.83-.47-1.53-.31-.68-.83-1.22-1.67-1.53-.84-.31-2-.39-3.59-.14v.01Z" clip-rule="evenodd"/><path fill="#F7F7F7" fill-rule="evenodd" d="M47.46 24.69c.05-.34.21-.64.38-.81l.11.1c-.14.14-.13.33-.17.64-.04.3.09.58.37.84.37.34.84.77 1.57 1.05.73.28 1.47.53 2.05.56.55.04 1.09.1 1.65.12.11 0 .25.03.36.03.65.03 1.29.14 1.71.19-.42-.05-1.05-.07-1.7-.1-.11 0-.22 0-.33-.01-.56-.02-1.15-.04-1.71-.08-.6-.04-1.39-.24-2.12-.52-.73-.28-1.42-.64-1.81-1-.32-.3-.39-.68-.35-1.02l-.01.01Z" clip-rule="evenodd"/><path fill="#F7F7F7" fill-rule="evenodd" d="M52.23 26.32c1.07 0 2.34-.32 3.34-.29.83.02 1.75-.43 2.49-.69.76-.45 1.09-1.05 1.43-1.27l.31 1.13c-.35.22-.98.55-1.73.82-.75.27-1.63.48-2.49.46-1-.02-2.28-.02-3.35-.01h-.16c-.55 0-1-.08-1.35-.08-.18 0-.28-.05-.38-.05h-.1c-.01 0-.1-.04-.11-.04h-.09H52.26l-.03.02ZM46.11 27.97c-.14-.27-.37-.82-.35-1l.05-.42c-.02.15.59.77.71 1 .12.22.33.38.71.47.8.21 3.79.23 4.21.21l-1.37.31c-.43.02-2.24.21-3.06 0-.43-.11-.75-.3-.89-.58l-.01.01Z" clip-rule="evenodd"/><path fill="#F6F6F6" d="M58.21 46.43c0-5.22 6-3.5 6.13-4.48 5.47 4.17 2.21 9.52 1.88 10.39-.51 1.32-6.46 7.12-7.78 8.6-1.05 1.18-.53 1.32-2.1 2.06l-11.1 2.06c-.44-1.23-1.33-5.37-.28-4.9 1.32.58 7.88-1 8.49-1.42.61-.42 4.76-8.49 5.22-8.65.46-.16-.46-2.74-.46-3.64v-.02Z"/></g></svg>
